src/assets/images/wallet-icon.svg

<svg fill="none" height="24" viewBox="0 0 23 24" width="23" xmlns="http://www.w3.org/2000/svg" xmlns:xlink="http://www.w3.org/1999/xlink"><clipPath id="a"><path d="m.381348 0h22.0499v24h-22.0499z"/></clipPath><g clip-path="url(#a)"><path d="m16.9188 7h2.7563c.2436 0 .4773.10536.6496.29289.1723.18754.2691.44189.2691.70711v12c0 .2652-.0968.5196-.2691.7071s-.406.2929-.6496.2929h-16.53748c-.24367 0-.47735-.1054-.64965-.2929s-.2691-.4419-.2691-.7071v-16c0-.26522.0968-.51957.2691-.70711.1723-.18753.40598-.29289.64965-.29289h13.78118zm-12.86243 2v10h14.69993v-10zm0-4v2h11.02493v-2zm10.10623 8h2.7562v2h-2.7562z" fill="#fff"/></g></svg>

<svg width="23" height="24" viewBox="0 0 23 24" fill="none" xmlns="http://www.w3.org/2000/svg">
<g clip-path="url(#clip0_4776_10752)">
<path d="M16.9188 7H19.6751C19.9187 7 20.1524 7.10536 20.3247 7.29289C20.497 7.48043 20.5938 7.73478 20.5938 8V20C20.5938 20.2652 20.497 20.5196 20.3247 20.7071C20.1524 20.8946 19.9187 21 19.6751 21H3.13762C2.89395 21 2.66027 20.8946 2.48797 20.7071C2.31567 20.5196 2.21887 20.2652 2.21887 20V4C2.21887 3.73478 2.31567 3.48043 2.48797 3.29289C2.66027 3.10536 2.89395 3 3.13762 3H16.9188V7ZM4.05637 9V19H18.7563V9H4.05637ZM4.05637 5V7H15.0813V5H4.05637ZM14.1626 13H16.9188V15H14.1626V13Z" fill="white"/>
</g>
<defs>
<clipPath id="clip0_4776_10752">
<rect width="22.0499" height="24" fill="white" transform="translate(0.381348)"/>
</clipPath>
</defs>
</svg>
